X:1
T:Wat'ry God
M:4/4
L:1/4
K:Bb
 F| B B B3/2A/4-G/4| F E D3/2 C/2| D =E F C| F3/4- G/4 A3/4- B/4| c3/2 B/2|\
 B3/4- A/4 G3/4- F/4 c C| F2 z F| B B B3/4- c/4 d3/4- c/4|B/2-A/2G/2-F/2 E3/2 E/2|\
 c c c3/2 B/2|A/2-G/2F/2-E/2 D F| B F B F| B3/4- B/4-d/2-e/2 f3/2 e/2|\
e/2-d/2c/2-B/2 f F| B2 z||

